src/wp-content/themes/aquaban/assets/images/slider_arrow.svg

<svg width="50" height="50" viewBox="0 0 50 50" fill="none" xmlns="http://www.w3.org/2000/svg">
<path d="M6.25 25C6.25 35.3553 14.6447 43.75 25 43.75C35.3553 43.75 43.75 35.3553 43.75 25C43.75 14.6447 35.3553 6.25 25 6.25C14.6447 6.25 6.25 14.6447 6.25 25Z" fill="#00AFEA"/>
<path fill-rule="evenodd" clip-rule="evenodd" d="M0 25C0 38.8071 11.1929 50 25 50C38.8071 50 50 38.8071 50 25C50 11.1929 38.8071 0 25 0C11.1929 0 0 11.1929 0 25ZM25 43.75C14.6447 43.75 6.25 35.3553 6.25 25C6.25 14.6447 14.6447 6.25 25 6.25C35.3553 6.25 43.75 14.6447 43.75 25C43.75 35.3553 35.3553 43.75 25 43.75Z" fill="#FCFCFC"/>
<path fill-rule="evenodd" clip-rule="evenodd" d="M20.9283 18.3709L14.9621 24.3371C14.596 24.7032 14.596 25.2968 14.9621 25.6629L20.9283 31.6292C21.2944 31.9953 21.888 31.9953 22.2541 31.6292C22.6202 31.263 22.6202 30.6694 22.2541 30.3033L17.8883 25.9375L34.375 25.9375C34.8928 25.9375 35.3125 25.5178 35.3125 25C35.3125 24.4823 34.8928 24.0625 34.375 24.0625L17.8883 24.0625L22.2541 19.6967C22.6202 19.3306 22.6202 18.737 22.2541 18.3709C21.888 18.0048 21.2944 18.0048 20.9283 18.3709Z" fill="#222222"/>
</svg>

<svg width="50" height="50" fill="none" xmlns="http://www.w3.org/2000/svg"><path d="M6.25 25c0 10.355 8.395 18.75 18.75 18.75S43.75 35.355 43.75 25 35.355 6.25 25 6.25 6.25 14.645 6.25 25z" fill="#00AFEA"/><path fill-rule="evenodd" clip-rule="evenodd" d="M0 25c0 13.807 11.193 25 25 25s25-11.193 25-25S38.807 0 25 0 0 11.193 0 25zm25 18.75C14.645 43.75 6.25 35.355 6.25 25S14.645 6.25 25 6.25 43.75 14.645 43.75 25 35.355 43.75 25 43.75z" fill="#FCFCFC"/><path fill-rule="evenodd" clip-rule="evenodd" d="M20.928 18.37l-5.966 5.967a.937.937 0 000 1.326l5.966 5.966a.937.937 0 101.326-1.326l-4.366-4.366h16.487a.937.937 0 100-1.875H17.888l4.366-4.365a.937.937 0 00-1.326-1.326z" fill="#222"/></svg>
